pic/icon-print.svg

<svg xmlns="http://www.w3.org/2000/svg" width="30" height="30" viewBox="0 0 30 30">
  <path fill-rule="evenodd" d="M25,0 C27.7614237,0 30,2.23857625 30,5 L30,25 C30,27.7614237 27.7614237,30 25,30 L5,30 C2.23857625,30 0,27.7614237 0,25 L0,5 C0,2.23857625 2.23857625,0 5,0 L25,0 Z M20,5 L10,5 C8.9456382,5 8.08183488,5.81587779 8.00548574,6.85073766 L8,7 L8,11 L7,11 C5.9456382,11 5.08183488,11.8158778 5.00548574,12.8507377 L5,13 L5,19 C5,20.0543618 5.81587779,20.9181651 6.85073766,20.9945143 L7,21 L8,21 L8,22 C8,23.0543618 8.81587779,23.9181651 9.85073766,23.9945143 L10,24 L20,24 C21.0543618,24 21.9181651,23.1841222 21.9945143,22.1492623 L22,22 L22,21 L23,21 C24.0543618,21 24.9181651,20.1841222 24.9945143,19.1492623 L25,19 L25,13 C25,11.9456382 24.1841222,11.0818349 23.1492623,11.0054857 L23,11 L22,11 L22,7 C22,5.9456382 21.1841222,5.08183488 20.1492623,5.00548574 L20,5 Z M21,18 L21,22 L20.9932723,22.1166211 C20.9399506,22.575703 20.575703,22.9399506 20.1166211,22.9932723 L20,23 L10,23 L9.88337887,22.9932723 C9.42429701,22.9399506 9.06004937,22.575703 9.00672773,22.1166211 L9,22 L9,18 L21,18 Z M19,20 L11,20 L11,21 L19,21 L19,20 Z M22.5,13 C22.7761424,13 23,13.2238576 23,13.5 C23,13.7454599 22.8231248,13.9496084 22.5898756,13.9919443 L22.5,14 L21.5,14 L21.4101244,13.9919443 C21.1768752,13.9496084 21,13.7454599 21,13.5 C21,13.2545401 21.1768752,13.0503916 21.4101244,13.0080557 L21.5,13 L22.5,13 Z M19.1275656,13 C19.403708,13 19.6275656,13.2238576 19.6275656,13.5 C19.6275656,13.7761424 19.403708,14 19.1275656,14 C18.8514233,14 18.6275656,13.7761424 18.6275656,13.5 C18.6275656,13.2238576 18.8514233,13 19.1275656,13 Z M20,6 L20.1166211,6.00672773 C20.575703,6.06004937 20.9399506,6.42429701 20.9932723,6.88337887 L21,7 L21,11 L9,11 L9,7 L9.00672773,6.88337887 C9.06004937,6.42429701 9.42429701,6.06004937 9.88337887,6.00672773 L10,6 L20,6 Z"/>
</svg>

<svg xmlns="http://www.w3.org/2000/svg" width="30" height="30" viewBox="0 0 30 30"><path fill-rule="evenodd" d="M25 0a5 5 0 0 1 5 5v20a5 5 0 0 1-5 5H5a5 5 0 0 1-5-5V5a5 5 0 0 1 5-5h20Zm-5 5H10a2 2 0 0 0-1.995 1.85L8 7v4H7a2 2 0 0 0-1.995 1.85L5 13v6a2 2 0 0 0 1.85 1.995L7 21h1v1a2 2 0 0 0 1.85 1.995L10 24h10a2 2 0 0 0 1.995-1.85L22 22v-1h1a2 2 0 0 0 1.995-1.85L25 19v-6a2 2 0 0 0-1.85-1.995L23 11h-1V7a2 2 0 0 0-1.85-1.995L20 5Zm1 13v4l-.007.117a1 1 0 0 1-.876.876L20 23H10l-.117-.007a1 1 0 0 1-.876-.876L9 22v-4h12Zm-2 2h-8v1h8v-1Zm3.5-7a.5.5 0 0 1 .09.992L22.5 14h-1l-.09-.008a.5.5 0 0 1 0-.984L21.5 13h1Zm-3.372 0a.5.5 0 1 1 0 1 .5.5 0 0 1 0-1ZM20 6l.117.007a1 1 0 0 1 .876.876L21 7v4H9V7l.007-.117a1 1 0 0 1 .876-.876L10 6h10Z"/></svg>
